X:1
T:Devotion (Gower), 66.66.66
T:Devotion (Gower), 66.66.66
T:John Henry Gower, 1895
T:Public Domain Courtesy of the Cyber Hymnal™
C:John Henry Gower, 1895
Z:Public Domain
Z:Courtesy of the Cyber Hymnal™
%%score ( 1 2 ) ( 3 4 )
L:1/8
M:3/4
K:E
V:1 treble 
V:2 treble 
V:3 bass 
V:4 bass 
V:1
 [GB]2 [GB]2 [GB]2 | [=G^A]4 [F=A]2 | [EG]6 | [EG]2 [EG]2 [B,E]2 | [CF]4 [DF]2 | [EG]6 | %6
 [GB]2 [GB]2 [Gc]2 | [GB]4 [FA]2 | [FA]6 | [FA]2 [FA]2 [EG]2 | F4 [EF]2 | [DF]6 | %12
 [B,E]2 [B,D]2 [G,C]2 | [B,D]4 [B,D]2 | [B,D]6 | E2 [DF]2 [DG]2 | [DF]4 [B,E]2 | [B,E]6 |] %18
V:2
 x6 | x6 | x6 | x6 | x6 | x6 | x6 | x6 | x6 | x6 | (C2 D2) x2 | x6 | x6 | x6 | x6 | E2 x4 | x6 | %17
 x6 |] %18
V:3
 [E,B,]2 [E,B,]2 [E,B,]2 | [E,C]4 [E,=C]2 | B,6 | [B,,B,]2 [B,,B,]2 [B,,G,]2 | [B,,A,]4 [B,,B,]2 | %5
 [E,B,]6 | [E,=D]2 [E,D]2 [^E,D]2 | [F,C]4 [F,C]2 | [E,C]6 | [D,B,]2 [D,B,]2 [E,B,]2 | %10
 [F,B,]4 [F,^A,]2 | [B,,B,]6 | [E,G,]2 [B,,F,]2 [C,E,]2 | [B,,F,]4 [B,,G,]2 | [B,,A,]6 | %15
 [C,G,]2 [B,,B,]2 [G,,B,]2 | [B,,A,]4 [E,,E,G,]2 | [E,,E,G,]6 |] %18
V:4
 x6 | x6 | (E,4 C,2) | x6 | x6 | x6 | x6 | x6 | x6 | x6 | x6 | x6 | x6 | x6 | x6 | x6 | x6 | x6 |] %18

